X:1
T:LOVER'S HEART
I:abc2nwc
M:2/2
L:1/8
Z: Contributed 2016-10-26 14:26:30 by dcorbett dcorbet@indigo.ie
K:C
A B|c2d2B2c2|(A2G2)C3C|D3E G2C2|A6zB|
c2dc B2(cB)|(A2G2)C3C|D3E G2E2|D6zC|
D3E G2G2|A3B (A G2)G|G2G2(Ac) d2|(d2c2)B2zB|
c2(dc) B2c2|A2(AG) C2z2|D E2D C2B,2|
C4z4|E4D2C2|E G2c- c4|G3G A2c2|(d2c2B2)zB|
c3d/2c/2 B2cB|A2(AG) C2zC/2C/2|D3E/2D/2 C B,3|C8|]
